X: 14062
T: Ms. BRENNAN'S WALTZ
C: Bob McQuillen 27 May'08
B: Bob's Note Book 14 #62
%R: waltz
%D:2008
Z: 2020 John Chambers <jc:trillian.mit.edu>
M: 3/4
L: 1/8
K: D
FE \
| "D"D2 D2 EF | "F#m"AB A2 FA | "G"B2 B2 de | "A7"f4 fe | "D"d2 B2 dB | "Bm"AF E2 DE | "G6"F2 AF ED | "A7"E4 FE |
| "D"D2 D2 EF | "F#m"AB A2 FA | "G"BA Bd ef | "Bm"ed B2 de | "D"f2 af ed | "G6"e2 fe dB | "A7"AB AF EF | "D"D4 :|
|: de \
| "D"f2 df ed | "F#m"c2 A2 FA | "G"BA Bc dB | "D"A2 F2 FE | "Bm"FA Bc dB | "Bm"AF E2 DE | "Bm"F2 B2 BA | "Bm"B4 AB |
| "D"dB df ed | "F#m"cB A2 dc | "G"Bc dc Bd | "D"A2 F2 DE | "Bm"FA Bc de | "Bm"d2 A2 FE | "G"F2 B2 BA | "A7*"B4 :|
%%center * except G last time only
%%begintext align
%% Yeah, I know, I wrote
%% Eugenie Brennan a waltz back in Bk.7. But what's it
%% been, over 20 years? So I just felt, she ought to be up-dated,
%% especially since she's John Brennan's sister. That's a pretty good
%% reason, and besides, she sings like a bird. That's another
%% good reason, and besides that, I don't think a hell of a
%% lot of that other waltz, even if I _did_ write it. So there!
%%endtext

%%sep 1 1 500

%%sep 1 1 500

